X: 1519
T: Nişâburek Peşrev
C: Tanburî Büyük Osman Bey
O: Turkey
F: http://compmusic.upf.edu/node/140
N: nisaburek--pesrev--muhammes----tanburi_buyuk_osman_bey
N: makam= nisaburek
N: form= pesrev
N: usul= muhammes = 32/4
M: 32/4
L: 1/16
K: C ^9/8f ^3/4c ^3/4g 
Q: 1/4=78
%%MIDI tuningsystem comma53
A4 e4 e3 d c2 d2  | e6 =g2 f2 g2 e2 f2  | \
w:  1. HANE  |   | 
d2 c2 B2 A2 c2 d2 e2 f2  | d2 e4 d2 c3 B A4  | 
w:   |   | 
z4 d2 c2 d4 f2 e2  | e2 d2 d2 c2 z2 f2 e2 d2  | \
w:   |   | 
d6 c2 c B c d c2 B2  | 
w:   | 
B6 =c2 B2 c2 A4  | z2 A4 B2 c4 B2 A2  | \
w:   |   | 
d6 c2 e2 ^d2 e4  | z2 e4 =g2 g2 f2 f2 e2  | 
w:   |   | 
e2 d2 d2 c2 c2 B2 A4  | z4 B2 B2 B4 c4  | \
w:   |   | 
d6 c2 z2 f2 e2 d2  | d6 c2 c B c d c2 B2  | 
w:   |   | 
B8 =c3 B A4  | B4 =c4 c6 B2  | A8 e8  | \
w:   |  TESLİM  |   | 
=f4 e2 ^d2 e4 d2 =c2  | ^d4 =c2 B2 A2 G2 A4  | 
w:   |   | 
z4 B2 =c2 ^d2 e4 d2  | =c8 B8  | B2 ^d2 =c2 B2 B2 A2 A2 G2  | \
w:   |   |   | 
A8 E8  | E8 A6 B2  | 
w:   |   | 
c4 B2 A2 d4 c2 B2  | e4 d2 c2 f4 e2 d2  | \
w:   |   | 
=g2 f2 e2 d2 c2 B2 A4  | z4 a2 =g2 g2 f2 f2 e2  | 
w:   |   | 
e2 d2 d2 c2 c3 B A4  | B3 d c2 B2 B2 A2 A2 G2  | \
w:   |   | 
A12 z4  | e2 f2 e2 ^d2 e4 f4  | 
w:   |  2. HANE  | 
e3 ^d c2 d2 e4 d2 e2  | f4 =g3 f f3 e d2 e2  | \
w:   |   | 
d4 e4 e2 f2 e2 d2  | d4 =g4 g2 a2 g2 f2  | 
w:   |   | 
f2 =g2 f2 e2 e2 f2 e2 d2  | e4 f2 e2 d4 e2 d2  | \
w:   |   | 
d3 c B2 d2 c8  | z4 B2 B2 B4 c4  | 
w:   |   | 
d4 e4 f4 =g4  | f4 =g2 f2 e4 f2 e2  | \
w:   |   | 
d4 e2 d2 c3 B A4  | z4 B2 c2 d4 e2 f2  | 
w:   |   | 
e2 d4 c2 z2 f2 e2 d2  | d6 c2 c B c d c2 B2  | \
w:   |   | 
B8 =c3 B A4  | B4 =c4 c6 B2  | 
w:   |  TESLİM  | 
A8 e8  | =f4 e2 ^d2 e4 d2 =c2  | ^d4 =c2 B2 A2 G2 A4  | \
w:   |   |   | 
z4 B2 =c2 ^d2 e4 d2  | =c8 B8  | 
w:   |   | 
B2 ^d2 =c2 B2 B2 A2 A2 G2  | A8 E8  | \
w:   |   | 
E8 A6 B2  | c4 B2 A2 d4 c2 B2  | e4 d2 c2 f4 e2 d2  | 
w:   |   |   | 
=g2 f2 e2 d2 c2 B2 A4  | z4 a2 =g2 g2 f2 f2 e2  | \
w:   |   | 
e2 d2 d2 c2 c3 B A4  | 
w:   | 
B3 d c2 B2 B2 A2 A2 G2  | A12 z4  | a2 g2 f2 e2 f4 g4  | \
w:   |   |  3. HANE  | 
a8 b8  | b2 d'2 c'2 b2 b2 a2 a2 g2  | 
w:   |   | 
a8 e8  | z4 =g4 g6 f2  | e6 d2 B4 e4  | \
w:   |   |   | 
^c4 B2 ^3/4c2 B4 G2 B2  | A8 z8  | z2 A4 B2 c6 B2  | 
w:   |   |   | 
e2 d2 d2 c2 c2 B2 A4  | e2 =f2 e2 d2 e2 g2 f2 e2  | \
w:   |   | 
e2 d2 d2 c2 c2 B2 c4  | 
w:   | 
z4 B2 B2 B4 c4  | d6 e2 f4 e2 d2  | d6 c2 c B c d c2 B2  | \
w:   |   |   | 
B8 =c3 B A4  | 
w:   | 
B4 =c4 c6 B2  | A8 e8  | =f4 e2 ^d2 e4 d2 =c2  | \
w:  TESLİM  |   |   | 
^d4 =c2 B2 A2 G2 A4  | z4 B2 =c2 ^d2 e4 d2  | 
w:   |   | 
=c8 B8  | B2 ^d2 =c2 B2 B2 A2 A2 G2  | \
w:   |   | 
A8 E8  | E8 A6 B2  | c4 B2 A2 d4 c2 B2  | 
w:   |   |   | 
e4 d2 c2 f4 e2 d2  | =g2 f2 e2 d2 c2 B2 A4  | \
w:   |   | 
z4 a2 =g2 g2 f2 f2 e2  | e2 d2 d2 c2 c3 B A4  | 
w:   |   | 
B3 d c2 B2 B2 A2 A2 G2  | A12 z4  | A2 B2 A2 G2 A2 G2 A2 B2  | \
w:   |   |  4. HANE  | 
A2 B6 z8  | 
w:   | 
=c6 B2 d6 ^3/4c2  | e8 z8  | z4 =f4 e4 d4  | \
w:   |   |   | 
=c6 d2 e8  | B3 d =c2 B2 B2 A2 A2 G2  | 
w:   |   | 
A8 z8  | z4 G2 A2 B2 =c B B2 A2  | G2 A2 B2 =c B A4 G4  | \
w:   |   |   | 
z4 E2 E2 E4 A4  | 
w:   | 
G2 A2 G2 =F2 F4 E4  | E4 =F2 E2 F4 G2 F2  | \
w:   |   | 
G4 A2 G2 A4 B2 A2  | B6 c2 d2 e4 d2  | 
w:   |   | 
d3 c B4 =c3 B A4  | B4 =c4 c6 B2  | A8 e8  | \
w:   |  TESLİM  |   | 
=f4 e2 ^d2 e4 d2 =c2  | ^d4 =c2 B2 A2 G2 A4  | 
w:   |   | 
z4 B2 =c2 ^d2 e4 d2  | =c8 B8  | B2 ^d2 =c2 B2 B2 A2 A2 G2  | \
w:   |   |   | 
A8 E8  | E8 A6 B2  | 
w:   |   | 
c4 B2 A2 d4 c2 B2  | e4 d2 c2 f4 e2 d2  | \
w:   |   | 
=g2 f2 e2 d2 c2 B2 A4  | z4 a2 =g2 g2 f2 f2 e2  | 
w:   |   | 
e2 d2 d2 c2 c3 B A4  | B3 d c2 B2 B2 A2 A2 G2  | \
w:   |   | 
A12 z4  | |


